Newaita-dark/apps/16/mxtools-icon-96.svg

<svg height="16" viewBox="0 0 16 16" width="16" xmlns="http://www.w3.org/2000/svg" xmlns:xlink="http://www.w3.org/1999/xlink"><linearGradient id="a" gradientUnits="userSpaceOnUse" x1="7.93826" x2="7.93826" y1="14.0169685" y2="14.67849050002"><stop offset="0" stop-opacity=".27451"/><stop offset="1" stop-opacity="0"/></linearGradient><linearGradient id="b"><stop offset="0" stop-opacity=".313726"/><stop offset=".222222" stop-opacity=".27451"/><stop offset="1" stop-opacity="0"/></linearGradient><radialGradient id="c" cx="450.908936" cy="189.579361" gradientTransform="matrix(.00000009 -.0390662 -.0703192 -.00000005 26.065324 31.797666)" gradientUnits="userSpaceOnUse" r="21.166656" xlink:href="#b"/><radialGradient id="d" cx="450.908936" cy="189.579361" gradientTransform="matrix(-.00000009 .0390662 .0703192 .00000005 -10.188807 -3.763739)" gradientUnits="userSpaceOnUse" r="21.166656" xlink:href="#b"/><radialGradient id="e" cx="450.908936" cy="189.579361" gradientTransform="matrix(-.00000009 -.0390662 .0703192 -.00000005 -10.188807 31.797666)" gradientUnits="userSpaceOnUse" r="21.166656" xlink:href="#b"/><radialGradient id="f" cx="450.908936" cy="189.579361" gradientTransform="matrix(.00000009 .0390662 -.0703192 .00000005 26.065323 -3.76374)" gradientUnits="userSpaceOnUse" r="21.166656" xlink:href="#b"/><linearGradient id="g" gradientUnits="userSpaceOnUse" x1="5.29217449998" x2="5.29217449998" y1="14.0169675" y2="1.44805300003"><stop offset="0" stop-color="#42a5f5"/><stop offset="1" stop-color="#64b5f6"/></linearGradient><linearGradient id="h" gradientUnits="userSpaceOnUse" x1="7.938262" x2="7.938262" y1="14.01696715762" y2="1.44805215761"><stop offset="0" stop-color="#bdbdbd"/><stop offset="1" stop-color="#e0e0e0"/></linearGradient><path d="m2.976562 13.96875h9.921876v.734375h-9.921876zm0 0" fill="url(#a)"/><path d="m12.898438 14.015625h1.324218v-.660156h-1.324218zm0 0" fill="url(#c)"/><path d="m2.976562 14.015625h-1.324218v.664063h1.324218zm0 0" fill="url(#d)"/><path d="m2.976562 14.015625h-1.324218v-.660156h1.324218zm0 0" fill="url(#e)"/><path d="m12.898438 14.015625h1.324218v.664063h-1.324218zm0 0" fill="url(#f)"/><path d="m2.316406 1.449219h11.246094c.363281 0 .660156.296875.660156.660156v11.246094c0 .367187-.296875.660156-.660156.660156h-11.246094c-.367187 0-.664062-.292969-.664062-.660156v-11.246094c0-.363281.296875-.660156.664062-.660156zm0 0" fill="url(#g)"/><path d="m2.316406 1.488281c-.367187 0-.664062.296875-.664062.664063v.082031c0-.367187.296875-.664063.664062-.664063h11.246094c.363281 0 .660156.296876.660156.664063v-.082031c0-.367188-.296875-.664063-.660156-.664063zm0 0" fill="#e6e6e6" fill-opacity=".392157"/><path d="m2.316406 13.976562c-.367187 0-.664062-.296874-.664062-.664062v-.082031c0 .367187.296875.664062.664062.664062h11.246094c.363281 0 .660156-.296875.660156-.664062v.082031c0 .367188-.296875.664062-.660156.664062zm0 0" fill-opacity=".196078"/><path d="m11.878906 3.566406-1.433594.382813c-.082031.023437-.152343.070312-.199218.132812l-.050782-.179687c-.035156.074218-.042968.164062-.019531.253906l.070313.257812c.046875-.0625.117187-.109374.199218-.132812l1.6875-.453125c-.042968-.054687-.089843-.105469-.136718-.152344-.039063-.039062-.078125-.074219-.117188-.109375zm-4.332031.648438c-.023437.050781-.054687.101562-.097656.140625l-.324219.324219-.128906-.128907-.164063.164063.292969.296875.324219-.324219c.128906-.128906.160156-.316406.097656-.472656zm1.238281.628906-.035156.035156c-.003906-.011718-.003906-.019531-.003906-.03125-.011719.117188-.011719.238282.003906.363282l.113281-.113282c-.023437-.058594-.042969-.117187-.058593-.179687-.007813-.027344-.011719-.050781-.019532-.074219zm3.742188.457031-.089844.023438c-.203125.570312-.671875 1.03125-1.300781 1.199219-.421875.113281-.84375.078124-1.214844-.074219l-.511719.515625-.132812-.132813-.164063.167969.296875.292969.511719-.511719c.371094.152344.792969.1875 1.214844.074219.753906-.203125 1.28125-.828125 1.390625-1.554688zm-8.890625.152344c-.066407.15625-.03125.34375.097656.472656l.929687.929688c.167969.171875.445313.171875.617188 0l.722656-.722657.910156.910157.296876-.296875-.167969-.164063-.128907.128907-.910156-.910157-.722656.726563c-.171875.167968-.449219.167968-.617188 0l-.929687-.929688c-.042969-.042968-.078125-.09375-.097656-.144531zm4.648437 2.632813-.574218.574218-.101563-.15625-.128906.128906.230469.359376.574218-.574219 1.46875 1.464843.253906-.339843-.144531-.140625-.109375.148437zm5.085938 4.152343c-.066406.1875-.242188.332031-.472656.332031h-9.921876c-.226562 0-.40625-.144531-.472656-.332031-.109375.3125.117188.664063.472656.664063h9.921876c.359374 0 .582031-.355469.472656-.664063zm0 0" fill-opacity=".235294"/><path d="m74.117922-168.629428h359.840637c11.62389 0 21.122983 9.499093 21.122983 21.122983v359.840637c0 11.748878-9.499093 21.122982-21.122983 21.122982h-359.840637c-11.748878 0-21.247971-9.374104-21.247971-21.122982v-359.840637c0-11.62389 9.499093-21.122983 21.247971-21.122983zm0 0" fill="none" stroke="#212121" stroke-linecap="round" stroke-width="3" transform="matrix(.031253 0 0 .031253 0 6.719392)"/><path d="m6.210938 2.738281c-.113282 0-.222657.042969-.308594.128907l-2.167969 2.167968c-.171875.171875-.171875.449219 0 .621094l.929687.929688c.167969.171874.445313.171874.617188 0l.722656-.722657 1.207032 1.203125-.574219.574219-.261719-.410156c-.09375-.140625-.25-.226563-.421875-.226563-.167969 0-.328125.085938-.417969.226563l-2.976562 4.632812c-.214844.332031.023437.769531.417968.769531h9.921876c.414062 0 .648437-.472656.402343-.800781l-1.984375-2.644531c-.128906-.167969-.335937-.230469-.519531-.1875l-1.683594-1.679688.808594-.8125c.371094.152344.792969.1875 1.214844.078126.753906-.203126 1.28125-.832032 1.390625-1.558594l-1.6875.453125c-.203125.054687-.410156-.066407-.464844-.269531l-.199219-.734376c-.054687-.203124.066407-.414062.269531-.464843l1.6875-.453125c-.042968-.054688-.089843-.105469-.136718-.15625-.464844-.46875-1.160156-.679688-1.847656-.496094-1.015626.273438-1.617188 1.3125-1.34375 2.332031.015624.0625.035156.121094.058593.179688l-.828125.824219-1.203125-1.207032.617188-.617187c.171875-.171875.171875-.449219 0-.621094l-.929688-.929687c-.085937-.085938-.195312-.128907-.308593-.128907zm2.074218 5.40625 1.722656 1.71875-1.046874 1.394531-1.480469-2.304687zm0 0" fill="url(#h)"/><path d="m6.210938 2.738281c-.113282 0-.222657.042969-.308594.128907l-2.167969 2.167968c-.113281.113282-.152344.265625-.117187.410156.015624-.078124.054687-.152343.117187-.210937l2.167969-2.167969c.085937-.085937.195312-.128906.308594-.128906.113281 0 .222656.042969.308593.128906l.929688.929688c.0625.058594.101562.132812.117187.210937.035156-.144531-.003906-.296875-.117187-.410156l-.929688-.929687c-.085937-.085938-.195312-.128907-.308593-.128907zm4.417968.101563c-.15625.003906-.316406.023437-.480468.066406-.882813.238281-1.453126 1.054688-1.40625 1.933594.039062-.800782.589843-1.515625 1.40625-1.734375.164062-.046875.324218-.066407.480468-.066407.519532-.003906 1.007813.199219 1.363282.558594l.140624-.039062c-.042968-.054688-.089843-.105469-.136718-.15625-.355469-.359375-.847656-.566406-1.367188-.5625zm-.425781 1.738281c-.039063.078125-.050781.175781-.027344.269531.007813-.027344.015625-.050781.027344-.074218l.171875.636718c.054688.203125.261719.320313.464844.269532l1.644531-.441407c.015625-.070312.03125-.140625.042969-.210937l-1.6875.453125c-.203125.054687-.410156-.066407-.464844-.269531zm-3.1875.644531-.183594.183594.097657.101562.085937-.089843 1.019531 1.019531.742188-.738281c.007812.035156.015625.070312.027344.105469.003906.011718.003906.023437.007812.03125l.050781-.046876c-.023437-.058593-.042969-.117187-.058593-.179687-.011719-.035156-.019532-.074219-.027344-.109375l-.742188.742188zm-1.0625 1.78125c-.167969 0-.328125.085938-.417969.226563l-2.976562 4.632812c-.078125.117188-.097656.246094-.070313.367188.011719-.058594.035157-.117188.070313-.171875l2.976562-4.628906c.089844-.144532.25-.230469.417969-.230469.171875 0 .328125.085937.421875.230469l.261719.410156.386719-.390625.089843.089843.097657-.101562-.1875-.183594-.386719.386719-.261719-.410156c-.09375-.140625-.25-.226563-.421875-.226563zm3.34375.5-.183594.1875.097657.097656.085937-.085937 1.5 1.496094c.183594-.046875.390625.015625.519531.183593l1.984375 2.648438c.046875.0625.074219.128906.089844.199219.027344-.132813 0-.273438-.089844-.398438l-1.984375-2.644531c-.128906-.167969-.335937-.230469-.519531-.1875zm-1.671875 1.675782-.144531.144531.078125.117187.066406-.066406 1.335938 2.082031.886718-1.183593.074219.074218.085937-.113281-.160156-.15625-.886718 1.179687zm0 0" fill="#fff" fill-opacity=".588235"/><path d="m198.731022-127.383367c-3.624654 0-7.12432 1.374869-9.874057 4.124606l-69.368376 69.368376c-5.499474 5.499475-5.499474 14.373627 0 19.873102l29.74716 29.747159c5.374486 5.499475 14.248639 5.499475 19.748114 0l23.122792-23.122792 38.621312 38.496324-18.373246 18.373246-8.3742-13.123747c-2.999714-4.49957-7.999236-7.249308-13.498711-7.249308-5.374487 0-10.498998 2.749738-13.373723 7.249308l-95.240905 148.235844c-6.874343 10.623986.749928 24.622649 13.373723 24.622649h317.469683c13.248735 0 20.748019-15.123556 12.873771-25.622553l-63.493937-84.61692c-4.124606-5.374487-10.748973-7.374296-16.623412-5.999427l-53.869856-53.744868 25.872529-25.997517c11.873866 4.874535 25.372577 5.999427 38.871288 2.499761 24.122697-6.499379 40.996085-26.622457 44.495751-49.870237l-53.994844 14.498615c-6.499379 1.749833-13.123746-2.124797-14.873579-8.624176l-6.374392-23.497756c-1.749833-6.49938 2.124797-13.248735 8.624177-14.87358l53.994844-14.498615c-1.374869-1.749833-2.874726-3.374678-4.374583-4.999523-14.873579-14.998568-37.121455-21.747923-59.119354-15.873484-32.496897 8.749164-51.745059 41.995989-42.995894 74.617874.499952 1.999809 1.124892 3.87463 1.874821 5.749451l-26.49747 26.372482-38.496324-38.621312 19.748114-19.748114c5.499475-5.499475 5.499475-14.373628 0-19.873103l-29.747159-29.747159c-2.749737-2.749737-6.249403-4.124606-9.874057-4.124606zm66.368662 172.983481 55.119737 54.994748-33.496802 44.620739-47.370476-73.742958zm0 0" fill="none" stroke="#212121" stroke-linecap="round" stroke-linejoin="round" stroke-width="3" transform="matrix(.031253 0 0 .031253 0 6.719392)"/></svg>

<?xml version="1.0" encoding="UTF-8"?>
<svg xmlns="http://www.w3.org/2000/svg" xmlns:xlink="http://www.w3.org/1999/xlink" width="16px" height="16px" viewBox="0 0 16 16" version="1.1">
<defs>
<linearGradient id="linear0" gradientUnits="userSpaceOnUse" x1="254" y1="233.5" x2="254" y2="254.666672" gradientTransform="matrix(0.031253,0,0,0.031253,-0.00000190753,6.719393)">
<stop offset="0" style="stop-color:rgb(0%,0%,0%);stop-opacity:0.27451;"/>
<stop offset="1" style="stop-color:rgb(0%,0%,0%);stop-opacity:0;"/>
</linearGradient>
<radialGradient id="radial0" gradientUnits="userSpaceOnUse" cx="450.908936" cy="189.579361" fx="450.908936" fy="189.579361" r="21.166656" gradientTransform="matrix(0.0000000870852,-0.0390662,-0.0703192,-0.0000000507693,26.065324,31.797666)">
<stop offset="0" style="stop-color:rgb(0%,0%,0%);stop-opacity:0.313726;"/>
<stop offset="0.222222" style="stop-color:rgb(0%,0%,0%);stop-opacity:0.27451;"/>
<stop offset="1" style="stop-color:rgb(0%,0%,0%);stop-opacity:0;"/>
</radialGradient>
<radialGradient id="radial1" gradientUnits="userSpaceOnUse" cx="450.908936" cy="189.579361" fx="450.908936" fy="189.579361" r="21.166656" gradientTransform="matrix(-0.0000000870852,0.0390662,0.0703192,0.0000000507693,-10.188807,-3.763739)">
<stop offset="0" style="stop-color:rgb(0%,0%,0%);stop-opacity:0.313726;"/>
<stop offset="0.222222" style="stop-color:rgb(0%,0%,0%);stop-opacity:0.27451;"/>
<stop offset="1" style="stop-color:rgb(0%,0%,0%);stop-opacity:0;"/>
</radialGradient>
<radialGradient id="radial2" gradientUnits="userSpaceOnUse" cx="450.908936" cy="189.579361" fx="450.908936" fy="189.579361" r="21.166656" gradientTransform="matrix(-0.0000000870852,-0.0390662,0.0703192,-0.0000000507693,-10.188807,31.797666)">
<stop offset="0" style="stop-color:rgb(0%,0%,0%);stop-opacity:0.313726;"/>
<stop offset="0.222222" style="stop-color:rgb(0%,0%,0%);stop-opacity:0.27451;"/>
<stop offset="1" style="stop-color:rgb(0%,0%,0%);stop-opacity:0;"/>
</radialGradient>
<radialGradient id="radial3" gradientUnits="userSpaceOnUse" cx="450.908936" cy="189.579361" fx="450.908936" fy="189.579361" r="21.166656" gradientTransform="matrix(0.0000000870852,0.0390662,-0.0703192,0.0000000507693,26.065323,-3.76374)">
<stop offset="0" style="stop-color:rgb(0%,0%,0%);stop-opacity:0.313726;"/>
<stop offset="0.222222" style="stop-color:rgb(0%,0%,0%);stop-opacity:0.27451;"/>
<stop offset="1" style="stop-color:rgb(0%,0%,0%);stop-opacity:0;"/>
</radialGradient>
<linearGradient id="linear1" gradientUnits="userSpaceOnUse" x1="169.333328" y1="233.5" x2="169.333328" y2="-168.666656" gradientTransform="matrix(0.031253,0,0,0.031253,0,6.719392)">
<stop offset="0" style="stop-color:rgb(25.882354%,64.705884%,96.078432%);stop-opacity:1;"/>
<stop offset="1" style="stop-color:rgb(39.215687%,70.980394%,96.470588%);stop-opacity:1;"/>
</linearGradient>
<linearGradient id="linear2" gradientUnits="userSpaceOnUse" x1="254" y1="251.469208" x2="254" y2="-150.697464" gradientTransform="matrix(0.031253,0,0,0.031253,0,6.1578)">
<stop offset="0" style="stop-color:rgb(74.117649%,74.117649%,74.117649%);stop-opacity:1;"/>
<stop offset="1" style="stop-color:rgb(87.843138%,87.843138%,87.843138%);stop-opacity:1;"/>
</linearGradient>
</defs>
<g id="surface1">
<path style=" stroke:none;fill-rule:nonzero;fill:url(#linear0);" d="M 2.976562 13.96875 L 12.898438 13.96875 L 12.898438 14.703125 L 2.976562 14.703125 Z M 2.976562 13.96875 "/>
<path style=" stroke:none;fill-rule:nonzero;fill:url(#radial0);" d="M 12.898438 14.015625 L 14.222656 14.015625 L 14.222656 13.355469 L 12.898438 13.355469 Z M 12.898438 14.015625 "/>
<path style=" stroke:none;fill-rule:nonzero;fill:url(#radial1);" d="M 2.976562 14.015625 L 1.652344 14.015625 L 1.652344 14.679688 L 2.976562 14.679688 Z M 2.976562 14.015625 "/>
<path style=" stroke:none;fill-rule:nonzero;fill:url(#radial2);" d="M 2.976562 14.015625 L 1.652344 14.015625 L 1.652344 13.355469 L 2.976562 13.355469 Z M 2.976562 14.015625 "/>
<path style=" stroke:none;fill-rule:nonzero;fill:url(#radial3);" d="M 12.898438 14.015625 L 14.222656 14.015625 L 14.222656 14.679688 L 12.898438 14.679688 Z M 12.898438 14.015625 "/>
<path style=" stroke:none;fill-rule:nonzero;fill:url(#linear1);" d="M 2.316406 1.449219 L 13.5625 1.449219 C 13.925781 1.449219 14.222656 1.746094 14.222656 2.109375 L 14.222656 13.355469 C 14.222656 13.722656 13.925781 14.015625 13.5625 14.015625 L 2.316406 14.015625 C 1.949219 14.015625 1.652344 13.722656 1.652344 13.355469 L 1.652344 2.109375 C 1.652344 1.746094 1.949219 1.449219 2.316406 1.449219 Z M 2.316406 1.449219 "/>
<path style=" stroke:none;fill-rule:nonzero;fill:rgb(90.196079%,90.196079%,90.196079%);fill-opacity:0.392157;" d="M 2.316406 1.488281 C 1.949219 1.488281 1.652344 1.785156 1.652344 2.152344 L 1.652344 2.234375 C 1.652344 1.867188 1.949219 1.570312 2.316406 1.570312 L 13.5625 1.570312 C 13.925781 1.570312 14.222656 1.867188 14.222656 2.234375 L 14.222656 2.152344 C 14.222656 1.785156 13.925781 1.488281 13.5625 1.488281 Z M 2.316406 1.488281 "/>
<path style=" stroke:none;fill-rule:nonzero;fill:rgb(0%,0%,0%);fill-opacity:0.196078;" d="M 2.316406 13.976562 C 1.949219 13.976562 1.652344 13.679688 1.652344 13.3125 L 1.652344 13.230469 C 1.652344 13.597656 1.949219 13.894531 2.316406 13.894531 L 13.5625 13.894531 C 13.925781 13.894531 14.222656 13.597656 14.222656 13.230469 L 14.222656 13.3125 C 14.222656 13.679688 13.925781 13.976562 13.5625 13.976562 Z M 2.316406 13.976562 "/>
<path style="fill:none;stroke-width:3;stroke-linecap:round;stroke-linejoin:miter;stroke:rgb(12.941177%,12.941177%,12.941177%);stroke-opacity:1;stroke-miterlimit:4;" d="M 74.117922 -168.629428 L 433.958559 -168.629428 C 445.582449 -168.629428 455.081542 -159.130335 455.081542 -147.506445 L 455.081542 212.334192 C 455.081542 224.08307 445.582449 233.457174 433.958559 233.457174 L 74.117922 233.457174 C 62.369044 233.457174 52.869951 224.08307 52.869951 212.334192 L 52.869951 -147.506445 C 52.869951 -159.130335 62.369044 -168.629428 74.117922 -168.629428 Z M 74.117922 -168.629428 " transform="matrix(0.031253,0,0,0.031253,0,6.719392)"/>
<path style=" stroke:none;fill-rule:nonzero;fill:url(#linear2);" d="M 6.210938 2.738281 C 6.097656 2.738281 5.988281 2.78125 5.902344 2.867188 L 3.734375 5.035156 C 3.5625 5.207031 3.5625 5.484375 3.734375 5.65625 L 4.664062 6.585938 C 4.832031 6.757812 5.109375 6.757812 5.28125 6.585938 L 6.003906 5.863281 L 7.210938 7.066406 L 6.636719 7.640625 L 6.375 7.230469 C 6.28125 7.089844 6.125 7.003906 5.953125 7.003906 C 5.785156 7.003906 5.625 7.089844 5.535156 7.230469 L 2.558594 11.863281 C 2.34375 12.195312 2.582031 12.632812 2.976562 12.632812 L 12.898438 12.632812 C 13.3125 12.632812 13.546875 12.160156 13.300781 11.832031 L 11.316406 9.1875 C 11.1875 9.019531 10.980469 8.957031 10.796875 9 L 9.113281 7.320312 L 9.921875 6.507812 C 10.292969 6.660156 10.714844 6.695312 11.136719 6.585938 C 11.890625 6.382812 12.417969 5.753906 12.527344 5.027344 L 10.839844 5.480469 C 10.636719 5.535156 10.429688 5.414062 10.375 5.210938 L 10.175781 4.476562 C 10.121094 4.273438 10.242188 4.0625 10.445312 4.011719 L 12.132812 3.558594 C 12.089844 3.503906 12.042969 3.453125 11.996094 3.402344 C 11.53125 2.933594 10.835938 2.722656 10.148438 2.90625 C 9.132812 3.179688 8.53125 4.21875 8.804688 5.238281 C 8.820312 5.300781 8.839844 5.359375 8.863281 5.417969 L 8.035156 6.242188 L 6.832031 5.035156 L 7.449219 4.417969 C 7.621094 4.246094 7.621094 3.96875 7.449219 3.796875 L 6.519531 2.867188 C 6.433594 2.78125 6.324219 2.738281 6.210938 2.738281 Z M 8.285156 8.144531 L 10.007812 9.863281 L 8.960938 11.257812 L 7.480469 8.953125 Z M 8.285156 8.144531 "/>
<path style=" stroke:none;fill-rule:nonzero;fill:rgb(100%,100%,100%);fill-opacity:0.916129;" d="M 6.210938 2.738281 C 6.097656 2.738281 5.988281 2.78125 5.902344 2.867188 L 3.734375 5.035156 C 3.597656 5.171875 3.570312 5.371094 3.644531 5.53125 C 3.667969 5.488281 3.695312 5.445312 3.734375 5.40625 L 5.902344 3.238281 C 5.988281 3.152344 6.097656 3.109375 6.210938 3.109375 C 6.324219 3.109375 6.433594 3.152344 6.519531 3.238281 L 7.449219 4.167969 C 7.488281 4.207031 7.515625 4.246094 7.539062 4.292969 C 7.613281 4.128906 7.585938 3.933594 7.449219 3.796875 L 6.519531 2.867188 C 6.433594 2.78125 6.324219 2.738281 6.210938 2.738281 Z M 10.628906 2.839844 C 10.472656 2.84375 10.3125 2.863281 10.148438 2.90625 C 9.234375 3.152344 8.65625 4.015625 8.746094 4.925781 C 8.824219 4.160156 9.359375 3.488281 10.148438 3.277344 C 10.765625 3.113281 11.386719 3.265625 11.84375 3.636719 L 12.132812 3.558594 C 12.089844 3.503906 12.042969 3.453125 11.996094 3.402344 C 11.640625 3.042969 11.148438 2.835938 10.628906 2.839844 Z M 10.203125 4.578125 C 10.164062 4.65625 10.152344 4.753906 10.175781 4.847656 L 10.375 5.582031 C 10.429688 5.785156 10.636719 5.90625 10.839844 5.851562 L 12.421875 5.429688 C 12.46875 5.300781 12.507812 5.167969 12.527344 5.027344 L 10.839844 5.480469 C 10.636719 5.535156 10.429688 5.414062 10.375 5.210938 Z M 7.015625 5.222656 L 6.832031 5.40625 L 8.035156 6.613281 L 8.863281 5.789062 C 8.839844 5.730469 8.820312 5.671875 8.804688 5.609375 C 8.792969 5.574219 8.785156 5.535156 8.777344 5.5 L 8.035156 6.242188 Z M 5.953125 7.003906 C 5.785156 7.003906 5.625 7.089844 5.535156 7.230469 L 2.558594 11.863281 C 2.460938 12.007812 2.457031 12.175781 2.511719 12.316406 C 2.523438 12.289062 2.539062 12.261719 2.558594 12.234375 L 5.535156 7.601562 C 5.625 7.460938 5.785156 7.375 5.953125 7.375 C 6.125 7.375 6.28125 7.460938 6.375 7.601562 L 6.636719 8.011719 L 7.210938 7.4375 L 7.023438 7.253906 L 6.636719 7.640625 L 6.375 7.230469 C 6.28125 7.089844 6.125 7.003906 5.953125 7.003906 Z M 9.296875 7.503906 L 9.113281 7.691406 L 10.796875 9.371094 C 10.980469 9.328125 11.1875 9.390625 11.316406 9.558594 L 13.300781 12.203125 C 13.328125 12.238281 13.347656 12.277344 13.363281 12.316406 C 13.425781 12.164062 13.414062 11.984375 13.300781 11.832031 L 11.316406 9.1875 C 11.1875 9.019531 10.980469 8.957031 10.796875 9 Z M 7.625 9.179688 L 7.480469 9.324219 L 8.960938 11.628906 L 10.007812 10.234375 L 9.847656 10.078125 L 8.960938 11.257812 Z M 7.625 9.179688 "/>
<path style=" stroke:none;fill-rule:nonzero;fill:rgb(0%,0%,0%);fill-opacity:0.235294;" d="M 11.71875 3.609375 L 10.445312 3.949219 C 10.363281 3.972656 10.292969 4.019531 10.246094 4.082031 L 10.226562 4.011719 C 10.167969 4.101562 10.148438 4.210938 10.175781 4.320312 L 10.246094 4.578125 C 10.292969 4.515625 10.363281 4.46875 10.445312 4.445312 L 12.132812 3.996094 C 12.089844 3.941406 12.042969 3.890625 11.996094 3.839844 C 11.910156 3.753906 11.816406 3.675781 11.71875 3.609375 Z M 7.5 4.296875 C 7.488281 4.316406 7.46875 4.335938 7.449219 4.355469 L 7.125 4.679688 L 7.078125 4.632812 L 6.832031 4.882812 L 7.125 5.175781 L 7.449219 4.851562 C 7.601562 4.699219 7.621094 4.464844 7.5 4.296875 Z M 8.761719 4.882812 C 8.734375 5.042969 8.730469 5.207031 8.75 5.375 L 8.863281 5.261719 C 8.839844 5.203125 8.820312 5.144531 8.804688 5.082031 C 8.785156 5.015625 8.773438 4.949219 8.761719 4.882812 Z M 12.527344 5.464844 L 12.359375 5.507812 C 12.128906 5.992188 11.695312 6.375 11.136719 6.523438 C 10.714844 6.636719 10.292969 6.601562 9.921875 6.449219 L 9.410156 6.964844 L 9.359375 6.914062 L 9.113281 7.164062 L 9.410156 7.460938 L 9.921875 6.945312 C 10.292969 7.097656 10.714844 7.132812 11.136719 7.019531 C 11.890625 6.816406 12.417969 6.191406 12.527344 5.464844 Z M 3.679688 5.535156 C 3.5625 5.707031 3.582031 5.941406 3.734375 6.09375 L 4.664062 7.023438 C 4.832031 7.191406 5.109375 7.191406 5.28125 7.023438 L 6.003906 6.296875 L 6.914062 7.207031 L 7.210938 6.914062 L 6.960938 6.664062 L 6.914062 6.710938 L 6.003906 5.800781 L 5.28125 6.527344 C 5.109375 6.695312 4.832031 6.695312 4.664062 6.527344 L 3.734375 5.597656 C 3.714844 5.578125 3.695312 5.554688 3.679688 5.535156 Z M 8.285156 8.085938 L 7.710938 8.660156 L 7.675781 8.601562 L 7.480469 8.796875 L 7.710938 9.15625 L 8.285156 8.582031 L 9.753906 10.046875 L 10.007812 9.710938 L 9.792969 9.496094 L 9.753906 9.550781 Z M 13.332031 12.320312 C 13.25 12.464844 13.09375 12.570312 12.898438 12.570312 L 2.976562 12.570312 C 2.785156 12.570312 2.628906 12.464844 2.542969 12.320312 C 2.355469 12.648438 2.589844 13.066406 2.976562 13.066406 L 12.898438 13.066406 C 13.289062 13.066406 13.519531 12.644531 13.332031 12.320312 Z M 13.332031 12.320312 "/>
<path style="fill:none;stroke-width:3;stroke-linecap:round;stroke-linejoin:round;stroke:rgb(12.941177%,12.941177%,12.941177%);stroke-opacity:1;stroke-miterlimit:4;" d="M 198.731022 -127.383367 C 195.106368 -127.383367 191.606702 -126.008498 188.856965 -123.258761 L 119.488589 -53.890385 C 113.989115 -48.39091 113.989115 -39.516758 119.488589 -34.017283 L 149.235749 -4.270124 C 154.610235 1.229351 163.484388 1.229351 168.983863 -4.270124 L 192.106655 -27.392916 L 230.727967 11.103408 L 212.354721 29.476654 L 203.980521 16.352907 C 200.980807 11.853337 195.981285 9.103599 190.48181 9.103599 C 185.107323 9.103599 179.982812 11.853337 177.108087 16.352907 L 81.867182 164.588751 C 74.992839 175.212737 82.61711 189.2114 95.240905 189.2114 L 412.710588 189.2114 C 425.959323 189.2114 433.458607 174.087844 425.584359 163.588847 L 362.090422 78.971927 C 357.965816 73.59744 351.341449 71.597631 345.46701 72.9725 L 291.597154 19.227632 L 317.469683 -6.769885 C 329.343549 -1.89535 342.84226 -0.770458 356.340971 -4.270124 C 380.463668 -10.769503 397.337056 -30.892581 400.836722 -54.140361 L 346.841878 -39.641746 C 340.342499 -37.891913 333.718132 -41.766543 331.968299 -48.265922 L 325.593907 -71.763678 C 323.844074 -78.263058 327.718704 -85.012413 334.218084 -86.637258 L 388.212928 -101.135873 C 386.838059 -102.885706 385.338202 -104.510551 383.838345 -106.135396 C 368.964766 -121.133964 346.71689 -127.883319 324.718991 -122.00888 C 292.222094 -113.259716 272.973932 -80.012891 281.723097 -47.391006 C 282.223049 -45.391197 282.847989 -43.516376 283.597918 -41.641555 L 257.100448 -15.269073 L 218.604124 -53.890385 L 238.352238 -73.638499 C 243.851713 -79.137974 243.851713 -88.012127 238.352238 -93.511602 L 208.605079 -123.258761 C 205.855342 -126.008498 202.355676 -127.383367 198.731022 -127.383367 Z M 265.099684 45.600114 L 320.219421 100.594862 L 286.722619 145.215601 L 239.352143 71.472643 Z M 265.099684 45.600114 " transform="matrix(0.031253,0,0,0.031253,0,6.719392)"/>
</g>
</svg>
